X:14
T:Great Waltz of China
M:3/4
L:1/8
K:D
"D"A2 FA "G"Bd | "D"A2 BA "A/C#"FE | "Bm"F2 DF "Bm/A"EF | "Gsus2"DB,A,4 |
"D"A2 Fd "G"BA | "Bm"F3 (3(E/F/E/)  D3/F/ | "F#m"(A6 | A6 |
"D"A2) FA "G"Bd | "D"A2 BA "A/C#"FE | "Bm"F2 DA "Bm/A"FD | "G"ED B,3 A, |
"D"F4 B,A, | "A"E4 B,A, | "G"(D6 | D6) :|
"A"EF AB "Bm"F2 | "G"EF DB, "D/F#"D2 | "Em"E2 "A"EF "F#m"A3/B/ | "Bm"F6 |
"G"E2 FE DB, | "D"DA, "G"B,D "D"A,D | "Em"EB, DE B,3/E/ | "A6"F4 "A"E2 |
"D"A2 FA "G"Bd | "D"A2 BA "A/C#"FE | "Bm"F2 EA "A/B"FD | "G"ED B,3A, |
"D"F4 B,A, | "A"E4 B,A, | "G"DB, "A7"D3E | "D"D6 :|
